X: 1
T: Maamme
T: V\aart land
T: Our Land
T: National Anthem of Finland
C: Fredrik Pacius
N: National anthem of Finland
M: 3/4
L: 1/8
K: A
E CD \
| "A"E3 A "E7"B>E | "A"c4 A2 | "D"F>B "A"A2 "E7"G2 | "A"A3 ||
|: zE2 \
| "E7"B>A GF ED | "A"C"D"F "A"E2 E2 | "E7"B>A GF ED | "A"C"D"F "A"E2 zE |
| "A"A>E CE AB | "A"c4 A2 | "D"F>B "A"A2 "E7"G2 | "A"A3 :|
